X: 14
T: The Star Of Munster
R: reel
M: 4/4
L: 1/8
K: Ador
|ed|:"Am"c2Ac "G"B2GB|"F"AGEF "Em"GEDG|"Am"EAAB cBcd|"Am"eaaf "Em"gfed|
|"Am"cBAc "G"BAGB|"F"AGEF "Em"GEDG|"Am"EAAB cded|[1"G"(3cBA BG "Am"A2ed:|[2"G"(3cBA BG "Am"A2de|]
|:"Am"eaab ageg|"Am"agbg agef|"G"gfga gfef|"G"gfaf gfdf|
|"Am"eaab ageg|"Am"agbg agef|"G"g2gf "F#m"a2ga|"Em"bgaf [1gedf:|[2gedB |A4]


Tune 197	Setting 12856

